X: 20502
Q: "Maestoso"
M: C
L: 1/16
K: D
d4 d3d d2de gfed | e4 A3A A4 ABcd |\
e4 e3e e2ef agfe | f4 d3d d4 f2g2 |\
(b2a2).g2.f2 (a2g2).f2.e2 | e4 A3A A4 f2a2 |
(d'2c'2).b2.a2 (d'2c'2).b2.a2 | a4 A2A A8 |\
"_P.".d2.d2 .d4 .e2.e2 .e4 | "_F."e4 {abc'}.d'2.a2 .f2.a2.f2.d2 |\
"_P.".e2.e2 .e4 .f2.f2 .f4 | e4 {ef^g}.a2.e2 .c2.e2.c2.A2 |
d2d2 d6 de gfed | B2B2 B6 ef agfe |\
f2d2 d4 e2A2 A4 | d3d e3e f4 agfe |\
d3d e3e f4 agfe | d4 d'3d' d'4 d'4 | d'12 |]



